X:17960
T:Una vez dixiste que s
R:Xiraldilla
C:Tradicional
S:Msica Tradicional Asturiana, (C) Tello & Tito. Asturies, 2001.
S:http://pagina.de/MusTradAst <telloytito@asturies.org>
A:Asturies
Z:Curdin
M:2/4
L:1/8
Q:1/4=100
K:C
|EE EF/G/|AA G2|EE GE/G/|FF E2|
|EE E/E/F/G/|AA G2|EE G/E/F/G/|FF EF/G/|
|AA GE/G/|FF E F/G/|A/A/B/A/ GE/G/|F/F/G/F/ EF/G/|
|AF/G/ AF/G/|AA G2|G/G/G/G/ [E2G2c2]|
